Hatter-kde/actions/16/arrow-left-double.svg

<svg xmlns="http://www.w3.org/2000/svg" viewBox="0 0 16 16">
  <defs id="defs3051">
    <style type="text/css" id="current-color-scheme">
      .ColorScheme-Text {
        color:#363636;
      }
      </style>
  </defs>
 <path style="fill:currentColor;fill-opacity:1;stroke:none" 
     d="M 3 2 L 3 14 L 4 14 L 4 2 L 3 2 z M 11.751953 2 L 7.453125 6.125 L 5.5 8 L 7.453125 9.875 L 11.751953 14 L 11.880859 13.875 L 12.271484 13.5 L 12.5 13.28125 L 8.203125 9.15625 L 6.9648438 8 L 8.203125 6.84375 L 12.5 2.71875 L 11.751953 2 z "
     class="ColorScheme-Text"
     />
</svg>

<?xml version="1.0" encoding="UTF-8"?>
<svg viewBox="0 0 16 16" xmlns="http://www.w3.org/2000/svg">
 <defs id="defs3051">
  <style id="current-color-scheme" type="text/css">.ColorScheme-Text {
        color:#363636;
      }</style>
 </defs>
 <path class="ColorScheme-Text" d="m3 2v12h1v-12h-1zm8.752 0-4.2988 4.125-1.9531 1.875 1.9531 1.875 4.2988 4.125 0.12891-0.125 0.39062-0.375 0.22852-0.21875-4.2969-4.125-1.2383-1.1562 1.2383-1.1562 4.2969-4.125-0.74805-0.71875z" fill="currentColor"/>
</svg>
